assets/icons/printer.svg

<svg width="20" height="20" viewBox="0 0 20 20" fill="none" xmlns="http://www.w3.org/2000/svg">
<path d="M5.2 14.7996H3.6C3.17565 14.7996 2.76869 14.631 2.46863 14.331C2.16857 14.0309 2 13.624 2 13.1996V9.19961C2 8.77526 2.16857 8.3683 2.46863 8.06824C2.76869 7.76818 3.17565 7.59961 3.6 7.59961H16.4C16.8243 7.59961 17.2313 7.76818 17.5314 8.06824C17.8314 8.3683 18 8.77526 18 9.19961V13.1996C18 13.624 17.8314 14.0309 17.5314 14.331C17.2313 14.631 16.8243 14.7996 16.4 14.7996H14.8" stroke="currentColor" stroke-width="1.5" stroke-linecap="round" stroke-linejoin="round"/>
<path d="M5.2002 7.6V2.8C5.2002 2.58783 5.28448 2.38434 5.43451 2.23431C5.58454 2.08429 5.78802 2 6.0002 2H14.0002C14.2124 2 14.4159 2.08429 14.5659 2.23431C14.7159 2.38434 14.8002 2.58783 14.8002 2.8V7.6" stroke="currentColor" stroke-width="1.5" stroke-linecap="round" stroke-linejoin="round"/>
<path d="M14.0002 11.5996H6.0002C5.55837 11.5996 5.2002 11.9578 5.2002 12.3996V17.1996C5.2002 17.6414 5.55837 17.9996 6.0002 17.9996H14.0002C14.442 17.9996 14.8002 17.6414 14.8002 17.1996V12.3996C14.8002 11.9578 14.442 11.5996 14.0002 11.5996Z" stroke="currentColor" stroke-width="1.5" stroke-linecap="round" stroke-linejoin="round"/>
</svg>

<svg xmlns="http://www.w3.org/2000/svg" width="20" height="20" fill="none" viewBox="0 0 20 20"><path stroke="currentColor" stroke-linecap="round" stroke-linejoin="round" stroke-width="1.5" d="M5.2 14.8H3.6A1.6 1.6 0 0 1 2 13.2v-4a1.6 1.6 0 0 1 1.6-1.6h12.8A1.6 1.6 0 0 1 18 9.2v4a1.6 1.6 0 0 1-1.6 1.6h-1.6M5.2 7.6V2.8A.8.8 0 0 1 6 2h8a.8.8 0 0 1 .8.8v4.8"/><path stroke="currentColor" stroke-linecap="round" stroke-linejoin="round" stroke-width="1.5" d="M14 11.6H6a.8.8 0 0 0-.8.8v4.8a.8.8 0 0 0 .8.8h8a.8.8 0 0 0 .8-.8v-4.8a.8.8 0 0 0-.8-.8"/></svg>
